assets/img/braze_icons/diamond-01.svg

<svg fill="none" height="24" viewBox="0 0 24 24" width="24" xmlns="http://www.w3.org/2000/svg"><g fill="#801ed7"><path d="m12.6127 2h-1.2254l-1.99996 6h5.22536z"/><path d="m14.6125 10h-5.22501l2.61251 7.8375z"/><path d="m7.27916 8 2-6h-2.04496c-.44517 0-.86734.19773-1.15233.53972l-3.86682 4.64019c-.27139.32566-.03981.82009.38411.82009z"/><path d="m2.21505 10.8201c-.27138-.3257-.03981-.8201.38411-.8201h4.68014l3.5117 10.535c.0766.2299-.1754.3848-.3247.194-.0518-.0662-.1034-.1314-.1555-.194z"/><path d="m16.7207 10h4.6802c.4239 0 .6555.4944.3841.8201l-8.0958 9.7149c-.0521.0626-.1037.1278-.1555.194-.1493.1908-.4013.0358-.3247-.194z"/><path d="m21.785 7.17991c.2714.32566.0398.82009-.3841.82009h-4.6801l-2-6h2.045c.4452 0 .8674.19773 1.1524.53972z"/></g></svg>

<svg width="24" height="24" viewBox="0 0 24 24" fill="none" xmlns="http://www.w3.org/2000/svg">
<path d="M12.6127 2H11.3873L9.38734 8H14.6127L12.6127 2Z" fill="#801ED7"/>
<path d="M14.6125 10H9.38749L12 17.8375L14.6125 10Z" fill="#801ED7"/>
<path d="M7.27916 8L9.27916 2H7.2342C6.78903 2 6.36686 2.19773 6.08187 2.53972L2.21505 7.17991C1.94366 7.50557 2.17524 8 2.59916 8H7.27916Z" fill="#801ED7"/>
<path d="M2.21505 10.8201C1.94367 10.4944 2.17524 10 2.59916 10H7.2793L10.791 20.535C10.8676 20.7649 10.6156 20.9198 10.4663 20.729C10.4145 20.6628 10.3629 20.5976 10.3108 20.535L2.21505 10.8201Z" fill="#801ED7"/>
<path d="M16.7207 10H21.4009C21.8248 10 22.0564 10.4944 21.785 10.8201L13.6892 20.535C13.6371 20.5976 13.5855 20.6628 13.5337 20.729C13.3844 20.9198 13.1324 20.7648 13.209 20.535L16.7207 10Z" fill="#801ED7"/>
<path d="M21.785 7.17991C22.0564 7.50557 21.8248 8 21.4009 8H16.7208L14.7208 2H16.7658C17.211 2 17.6332 2.19773 17.9182 2.53972L21.785 7.17991Z" fill="#801ED7"/>
</svg>
